static/assets/img/icons/theme/text/align-center.svg

<svg height="24" viewBox="0 0 24 24" width="24" xmlns="http://www.w3.org/2000/svg"><g fill="none" fill-rule="evenodd"><path d="m0 0h24v24h-24z" opacity="0"/><g fill="#000"><path d="m5 5h14c.5522847 0 1 .44771525 1 1s-.4477153 1-1 1h-14c-.55228475 0-1-.44771525-1-1s.44771525-1 1-1zm0 8h14c.5522847 0 1 .4477153 1 1s-.4477153 1-1 1h-14c-.55228475 0-1-.4477153-1-1s.44771525-1 1-1z" opacity=".3"/><path d="m8 9h8c.5522847 0 1 .44771525 1 1 0 .5522847-.4477153 1-1 1h-8c-.55228475 0-1-.4477153-1-1 0-.55228475.44771525-1 1-1zm0 8h8c.5522847 0 1 .4477153 1 1s-.4477153 1-1 1h-8c-.55228475 0-1-.4477153-1-1s.44771525-1 1-1z"/></g></g></svg>

<svg width="24px" height="24px" viewBox="0 0 24 24" version="1.1" xmlns="http://www.w3.org/2000/svg" xmlns:xlink="http://www.w3.org/1999/xlink">
    <title>Icon For Align-center</title>
    <g stroke="none" stroke-width="1" fill="none" fill-rule="evenodd">
        <rect opacity="0" x="0" y="0" width="24" height="24"></rect>
        <path d="M5,5 L19,5 C19.5522847,5 20,5.44771525 20,6 C20,6.55228475 19.5522847,7 19,7 L5,7 C4.44771525,7 4,6.55228475 4,6 C4,5.44771525 4.44771525,5 5,5 Z M5,13 L19,13 C19.5522847,13 20,13.4477153 20,14 C20,14.5522847 19.5522847,15 19,15 L5,15 C4.44771525,15 4,14.5522847 4,14 C4,13.4477153 4.44771525,13 5,13 Z" fill="#000000" opacity="0.3"></path>
        <path d="M8,9 L16,9 C16.5522847,9 17,9.44771525 17,10 C17,10.5522847 16.5522847,11 16,11 L8,11 C7.44771525,11 7,10.5522847 7,10 C7,9.44771525 7.44771525,9 8,9 Z M8,17 L16,17 C16.5522847,17 17,17.4477153 17,18 C17,18.5522847 16.5522847,19 16,19 L8,19 C7.44771525,19 7,18.5522847 7,18 C7,17.4477153 7.44771525,17 8,17 Z" fill="#000000"></path>
    </g>
</svg>
